public/img/CATEGORIES_ICONS/FINAN_ICON.svg

<?xml version="1.0" encoding="UTF-8"?>
<svg width="87px" height="118px" viewBox="0 0 87 118" version="1.1" xmlns="http://www.w3.org/2000/svg" xmlns:xlink="http://www.w3.org/1999/xlink">
    <!-- Generator: Sketch 42 (36781) - http://www.bohemiancoding.com/sketch -->
    <title>FINAN_ICON</title>
    <desc>Created with Sketch.</desc>
    <defs></defs>
    <g id="Page-1" stroke="none" stroke-width="1" fill="none" fill-rule="evenodd">
        <g id="Home" transform="translate(-628.000000, -1067.000000)">
            <g id="CATEGORIES" transform="translate(122.000000, 1066.000000)">
                <g id="FINAN_ICON" transform="translate(506.000000, 0.982000)">
                    <polygon id="Fill-45" fill="#00B1B0" points="0.047 25.0183 43.348 0.0183 86.649 25.0183 86.649 75.0183 43.348 100.0183 0.047 75.0183"></polygon>
                    <path d="M49.8393,31.3591 C49.8393,31.3591 53.7133,26.1891 57.8003,27.3911 C55.1553,30.8781 56.3583,35.4461 57.3203,36.1681 C59.1233,37.6111 63.0913,42.9011 64.0533,45.7871 C65.4953,46.1481 66.6983,45.7871 66.6983,45.7871 C66.6983,45.7871 67.4203,46.3881 67.4203,47.4701 L67.4203,52.5211 C67.4203,52.5211 67.6603,54.2041 66.5783,54.2041 L64.2933,54.2041 C64.2933,54.2041 63.4523,54.5641 62.9703,56.1281 C62.4893,57.6911 60.8063,61.4181 57.0793,64.4231 C54.0733,67.5501 54.0733,71.8781 54.1933,72.7201 C51.3083,72.9601 46.2583,72.7201 46.2583,72.7201 L46.2583,70.4351 C46.2583,70.4351 45.5963,69.5941 44.1243,69.5941 C42.6523,69.5941 38.6843,69.4731 38.6843,69.4731 C38.6843,69.4731 36.6403,69.8351 36.6403,70.7951 L36.6403,72.8271 L28.9453,72.8271 C28.9453,72.8271 28.3443,68.5121 26.9013,66.5881 C25.4583,64.6641 17.0423,54.5641 19.8073,45.3061 C21.7313,39.5351 29.1333,27.1511 49.8393,31.3591" id="Fill-46" fill="#FEFEFE"></path>
                    <path d="M41.5798,40.6631 L41.5798,42.2481 C42.2158,42.3501 42.7358,42.5611 43.1408,42.8791 C43.5448,43.1971 43.9298,43.6851 44.2968,44.3431 L42.7198,45.2241 C42.2458,44.3621 41.6248,43.9301 40.8598,43.9301 C40.3858,43.9301 39.9918,44.0711 39.6788,44.3511 C39.3668,44.6311 39.2098,44.9811 39.2098,45.4021 C39.2098,45.7851 39.3368,46.1031 39.5898,46.3561 C39.8378,46.6041 40.3398,46.8981 41.0948,47.2381 C41.7468,47.5341 42.2858,47.8131 42.7118,48.0751 C43.1378,48.3361 43.4578,48.5881 43.6738,48.8311 C44.2838,49.4891 44.5878,50.2841 44.5878,51.2171 C44.5878,52.1331 44.3128,52.9421 43.7628,53.6431 C43.2188,54.3381 42.4908,54.8071 41.5798,55.0491 L41.5798,56.7241 L40.1638,56.7241 L40.1638,55.0981 C39.1078,54.9251 38.3018,54.5621 37.7468,54.0061 C37.1908,53.4521 36.7818,52.5941 36.5178,51.4351 L38.2958,51.0631 C38.5388,51.8821 38.8348,52.4671 39.1858,52.8181 C39.5528,53.1521 40.0398,53.3191 40.6498,53.3191 C41.2428,53.3191 41.7388,53.1271 42.1378,52.7451 C42.5308,52.3681 42.7278,51.8791 42.7278,51.2821 C42.7278,50.7471 42.5628,50.3191 42.2348,49.9961 C42.0678,49.8391 41.8208,49.6631 41.4948,49.4661 C41.1678,49.2691 40.7518,49.0551 40.2458,48.8231 C39.1998,48.3541 38.5118,47.9221 38.1838,47.5291 C37.6598,46.9411 37.3988,46.2381 37.3988,45.4181 C37.3988,45.0301 37.4608,44.6691 37.5848,44.3341 C37.7088,44.0001 37.8878,43.6971 38.1218,43.4251 C38.3568,43.1531 38.6468,42.9171 38.9918,42.7171 C39.3368,42.5181 39.7278,42.3611 40.1638,42.2481 L40.1638,40.6631 L41.5798,40.6631 Z" id="Fill-47" fill="#00B1B0"></path>
                    <polygon id="Fill-48" fill="#00B1B0" points="15.3879 109.0229 20.2809 109.0229 20.2809 110.3549 16.9349 110.3549 16.9349 112.7649 19.7529 112.7649 19.7529 114.0959 16.9349 114.0959 16.9349 117.5389 15.3879 117.5389"></polygon>
                    <polygon id="Fill-49" fill="#00B1B0" points="21.736 117.539 23.283 117.539 23.283 109.023 21.736 109.023"></polygon>
                    <path d="M25.4436,109.0229 L26.9906,109.0229 L30.2166,113.9409 C30.5406,114.4319 30.9246,115.2599 30.9246,115.2599 L30.9486,115.2599 C30.9486,115.2599 30.8646,114.4439 30.8646,113.9409 L30.8646,109.0229 L32.3996,109.0229 L32.3996,117.5389 L30.8646,117.5389 L27.6386,112.6329 C27.3146,112.1409 26.9306,111.3139 26.9306,111.3139 L26.9066,111.3139 C26.9066,111.3139 26.9906,112.1289 26.9906,112.6329 L26.9906,117.5389 L25.4436,117.5389 L25.4436,109.0229 Z" id="Fill-50" fill="#00B1B0"></path>
                    <path d="M37.2981,110.4985 C37.2981,110.4985 37.1061,111.3385 36.9381,111.8175 L36.1831,114.0965 L38.4131,114.0965 L37.6581,111.8175 C37.5021,111.3385 37.3221,110.4985 37.3221,110.4985 L37.2981,110.4985 Z M38.7971,115.3555 L35.8111,115.3555 L35.0911,117.5385 L33.4961,117.5385 L36.4941,109.0225 L38.1131,109.0225 L41.1121,117.5385 L39.5171,117.5385 L38.7971,115.3555 Z" id="Fill-51" fill="#00B1B0"></path>
                    <path d="M42.2078,109.0229 L43.7548,109.0229 L46.9808,113.9409 C47.3048,114.4319 47.6888,115.2599 47.6888,115.2599 L47.7128,115.2599 C47.7128,115.2599 47.6288,114.4439 47.6288,113.9409 L47.6288,109.0229 L49.1638,109.0229 L49.1638,117.5389 L47.6288,117.5389 L44.4028,112.6329 C44.0788,112.1409 43.6948,111.3139 43.6948,111.3139 L43.6708,111.3139 C43.6708,111.3139 43.7548,112.1289 43.7548,112.6329 L43.7548,117.5389 L42.2078,117.5389 L42.2078,109.0229 Z" id="Fill-52" fill="#00B1B0"></path>
                    <path d="M55.1174,108.8794 C57.1924,108.8794 58.2604,110.0424 58.2604,110.0424 L57.5164,111.1934 C57.5164,111.1934 56.5454,110.2944 55.1894,110.2944 C53.3904,110.2944 52.3354,111.6384 52.3354,113.2214 C52.3354,114.8404 53.4264,116.2674 55.2014,116.2674 C56.6774,116.2674 57.6724,115.1884 57.6724,115.1884 L58.4874,116.3034 C58.4874,116.3034 57.3124,117.6824 55.1414,117.6824 C52.5384,117.6824 50.7404,115.7514 50.7404,113.2444 C50.7404,110.7744 52.6114,108.8794 55.1174,108.8794" id="Fill-53" fill="#00B1B0"></path>
                    <polygon id="Fill-54" fill="#00B1B0" points="59.9202 109.0229 65.0172 109.0229 65.0172 110.3549 61.4672 110.3549 61.4672 112.5859 64.3332 112.5859 64.3332 113.9169 61.4672 113.9169 61.4672 116.2079 65.2092 116.2079 65.2092 117.5389 59.9202 117.5389"></polygon>
                    <path d="M67.012,115.356 C67.012,115.356 67.935,116.255 69.134,116.255 C69.783,116.255 70.369,115.919 70.369,115.224 C70.369,113.701 66.352,113.964 66.352,111.35 C66.352,109.935 67.575,108.879 69.206,108.879 C70.885,108.879 71.749,109.791 71.749,109.791 L71.077,111.05 C71.077,111.05 70.262,110.306 69.195,110.306 C68.475,110.306 67.911,110.726 67.911,111.326 C67.911,112.837 71.917,112.465 71.917,115.188 C71.917,116.543 70.885,117.682 69.111,117.682 C67.215,117.682 66.172,116.519 66.172,116.519 L67.012,115.356 Z" id="Fill-55" fill="#00B1B0"></path>
                </g>
            </g>
        </g>
    </g>
</svg>

<svg width="87" height="118" viewBox="0 0 87 118" xmlns="http://www.w3.org/2000/svg"><title>FINAN_ICON</title><g fill="none" fill-rule="evenodd"><path fill="#00B1B0" d="M.047 25L43.348 0l43.301 25v50l-43.301 25L.047 75z"/><path d="M49.84 31.341s3.873-5.17 7.96-3.968c-2.645 3.487-1.442 8.055-.48 8.777 1.803 1.443 5.771 6.733 6.733 9.62 1.442.36 2.645 0 2.645 0s.722.6.722 1.682v5.051s.24 1.683-.842 1.683h-2.285s-.84.36-1.323 1.924c-.48 1.563-2.164 5.29-5.89 8.295-3.007 3.127-3.007 7.455-2.887 8.297-2.885.24-7.935 0-7.935 0v-2.285s-.662-.84-2.134-.84-5.44-.122-5.44-.122-2.044.362-2.044 1.322v2.032h-7.695s-.6-4.315-2.044-6.239c-1.443-1.924-9.859-12.024-7.094-21.282 1.924-5.77 9.326-18.155 30.032-13.947" fill="#FEFEFE"/><path d="M41.58 40.645v1.585c.636.102 1.156.313 1.56.631.405.318.79.806 1.157 1.464l-1.577.881c-.474-.862-1.095-1.294-1.86-1.294-.474 0-.868.141-1.181.421-.312.28-.47.63-.47 1.051 0 .383.128.701.38.954.249.248.75.542 1.506.882a14.89 14.89 0 0 1 1.617.837c.426.261.746.513.962.756.61.658.914 1.453.914 2.386a3.82 3.82 0 0 1-.825 2.426c-.544.695-1.272 1.164-2.183 1.406v1.675h-1.416V55.08c-1.056-.173-1.862-.536-2.417-1.092-.556-.554-.965-1.412-1.23-2.57l1.779-.373c.243.82.539 1.404.89 1.755.367.334.854.501 1.464.501.593 0 1.089-.192 1.488-.574.393-.377.59-.866.59-1.463 0-.535-.165-.963-.493-1.286a4.537 4.537 0 0 0-.74-.53 12.842 12.842 0 0 0-1.25-.643c-1.045-.469-1.733-.9-2.061-1.294-.524-.588-.785-1.29-.785-2.11a2.967 2.967 0 0 1 .723-1.993c.235-.273.525-.509.87-.709a4.69 4.69 0 0 1 1.172-.469v-1.585h1.416zM15.388 109.005h4.893v1.332h-3.346v2.41h2.818v1.33h-2.818v3.444h-1.547zM21.736 117.521h1.547v-8.516h-1.547zM25.444 109.005h1.547l3.226 4.918c.324.49.708 1.319.708 1.319h.024s-.084-.816-.084-1.32v-4.917H32.4v8.516h-1.535l-3.226-4.906c-.324-.492-.708-1.32-.708-1.32h-.024s.084.816.084 1.32v4.906h-1.547v-8.516zM37.298 110.48s-.192.84-.36 1.32l-.755 2.279h2.23l-.755-2.28c-.156-.479-.336-1.319-.336-1.319h-.024zm1.5 4.858H35.81l-.72 2.183h-1.595l2.998-8.517h1.62l2.998 8.516h-1.595l-.72-2.182zM42.208 109.005h1.547l3.226 4.918c.324.49.708 1.319.708 1.319h.024s-.084-.816-.084-1.32v-4.917h1.535v8.516h-1.535l-3.226-4.906c-.324-.492-.708-1.32-.708-1.32h-.024s.084.816.084 1.32v4.906h-1.547v-8.516zM55.117 108.861c2.075 0 3.143 1.163 3.143 1.163l-.744 1.151s-.97-.899-2.327-.899c-1.799 0-2.854 1.344-2.854 2.927 0 1.62 1.091 3.046 2.866 3.046 1.476 0 2.471-1.079 2.471-1.079l.815 1.115s-1.175 1.38-3.346 1.38c-2.603 0-4.4-1.932-4.4-4.439 0-2.47 1.87-4.365 4.376-4.365M59.92 109.005h5.097v1.332h-3.55v2.23h2.866v1.332h-2.866v2.29h3.742v1.332H59.92zM67.012 115.338s.923.899 2.122.899c.649 0 1.235-.336 1.235-1.031 0-1.523-4.017-1.26-4.017-3.874 0-1.415 1.223-2.471 2.854-2.471 1.679 0 2.543.912 2.543.912l-.672 1.259s-.815-.744-1.882-.744c-.72 0-1.284.42-1.284 1.02 0 1.511 4.006 1.139 4.006 3.862 0 1.355-1.032 2.494-2.806 2.494-1.896 0-2.939-1.163-2.939-1.163l.84-1.163z" fill="#00B1B0"/></g></svg>
